src/static/logo.svg

<svg viewBox="0 0 126 140" xmlns="http://www.w3.org/2000/svg"><path d="m23.57 5.0737c0-1.3446 0.5342-2.6342 1.485-3.585 0.9508-0.95081 2.2404-1.485 3.585-1.485h49.48c6.543-0.072047 13.055 0.90363 19.29 2.89l-8.69 8.82c-2.8644-0.5443-5.7744-0.8122-8.69-0.8h-50.62c-0.7673 0.0013-1.5273-0.1488-2.2364-0.4418-0.7092-0.2931-1.3535-0.72318-1.896-1.2657-0.5426-0.54256-0.9727-1.1869-1.2657-1.896-0.2931-0.70914-0.4432-1.4691-0.4419-2.2364z" fill="#ADADAD"/><path d="m88.83 74.054 8.89 8.86c-6.8062 2.2712-13.946 3.3833-21.12 3.29h-29.8c-2.9784 0-5.8348 1.1832-7.9408 3.2892s-3.2892 4.9624-3.2892 7.9408v35.78c0 1.591-0.6321 3.117-1.7574 4.242-1.1252 1.126-2.6513 1.758-4.2426 1.758s-3.1174-0.632-4.2426-1.758c-1.1253-1.125-1.7574-2.651-1.7574-4.242v-43.53c0-1.8931 0.3735-3.7676 1.0992-5.5161 0.7257-1.7484 1.7892-3.3366 3.1297-4.6733 1.3404-1.3368 2.9315-2.3959 4.682-3.1167s3.626-1.0891 5.5191-1.0839h39.69c3.749 0.0224 7.4877-0.3937 11.14-1.24z" fill="#ADADAD"/><path d="m125.26 42.564c0 13.09-4.3 23.61-12 31-1.091 1.0405-2.546 1.6135-4.053 1.5967-1.508-0.0169-2.949-0.6221-4.017-1.6867l-0.23-0.22c-1.074-1.0412-1.698-2.4617-1.737-3.9571-0.039-1.4955 0.509-2.9468 1.527-4.0429 5-5.27 7.93-12.69 7.93-22.36 0-10.28-3-17.76-7.79-22.9-0.998-1.0851-1.538-2.5134-1.508-3.9871s0.627-2.879 1.668-3.9229c1.05-1.0599 2.47-1.6717 3.962-1.7071 1.491-0.0355 2.939 0.5083 4.038 1.5171 7.76 7.3 12.21 17.65 12.21 30.67z" fill="#ADADAD"/><path d="m34.16 18.924v1.17h-9.16v-1.17c0-1.2173 0.4836-2.3848 1.3444-3.2456s2.0283-1.3444 3.2456-1.3444 2.3848 0.4836 3.2456 1.3444 1.3444 2.0283 1.3444 3.2456h-0.02z" fill="#ADADAD"/><path d="m32.66 30.854h-6.18c-0.8837 0-1.6 0.7164-1.6 1.6v3.55c0 0.8837 0.7163 1.6 1.6 1.6h6.18c0.8837 0 1.6-0.7163 1.6-1.6v-3.55c0-0.8836-0.7163-1.6-1.6-1.6z" fill="#ADADAD"/><path d="m32.33 48.514h-5.53c-0.9941 0-1.8 0.8059-1.8 1.8v2.98c0 0.9941 0.8059 1.8 1.8 1.8h5.53c0.9941 0 1.8-0.8059 1.8-1.8v-2.98c0-0.9941-0.8059-1.8-1.8-1.8z" fill="#ADADAD"/><path d="m24.93 65.924h9.28v0.89c0.0341 1.1953-0.3782 2.3605-1.1565 3.2683-0.7784 0.9077-1.867 1.493-3.0535 1.6417-0.6417 0.0568-1.2882-0.0203-1.8985-0.2265-0.6103-0.2063-1.1711-0.537-1.6469-0.9714-0.4757-0.4344-0.856-0.9629-1.1167-1.552-0.2608-0.589-0.3963-1.2259-0.3979-1.8701l-0.01-1.18z" fill="#ADADAD"/><path d="m59.14 25.444c0 1.1855-0.4709 2.3225-1.3092 3.1608s-1.9753 1.3092-3.1608 1.3092h-50.2c-1.1855 0-2.3225-0.4709-3.1608-1.3092-0.83828-0.8383-1.3092-1.9753-1.3092-3.1608s0.47094-2.3225 1.3092-3.1608c0.83829-0.8382 1.9752-1.3092 3.1608-1.3092h50.2c1.1855 0 2.3225 0.471 3.1608 1.3092 0.8383 0.8383 1.3092 1.9753 1.3092 3.1608z" fill="#ADADAD"/><path d="m59.14 43.004c0 1.1855-0.4709 2.3225-1.3092 3.1608s-1.9753 1.3092-3.1608 1.3092h-50.2c-1.1855 0-2.3225-0.4709-3.1608-1.3092-0.83828-0.8383-1.3092-1.9753-1.3092-3.1608s0.47094-2.3225 1.3092-3.1608c0.83829-0.8382 1.9752-1.3092 3.1608-1.3092h50.2c1.1855 0 2.3225 0.471 3.1608 1.3092 0.8383 0.8383 1.3092 1.9753 1.3092 3.1608z" fill="#ADADAD"/><path d="m59.14 60.594c0 1.1855-0.4709 2.3225-1.3092 3.1608s-1.9753 1.3092-3.1608 1.3092h-50.2c-1.1855 0-2.3225-0.4709-3.1608-1.3092-0.83828-0.8383-1.3092-1.9753-1.3092-3.1608s0.47094-2.3225 1.3092-3.1608c0.83829-0.8382 1.9752-1.3092 3.1608-1.3092h50.2c1.1855 0 2.3225 0.471 3.1608 1.3092 0.8383 0.8383 1.3092 1.9753 1.3092 3.1608z" fill="#ADADAD"/><path d="m92.46 60.914c0.8167 0.8408 1.3693 1.9024 1.5894 3.0536 0.2202 1.1513 0.0983 2.3419-0.3506 3.4246-0.4488 1.0828-1.205 2.0104-2.1751 2.6683-0.9701 0.6578-2.1117 1.0171-3.2837 1.0335-1.3063 1e-3 -2.576-0.4316-3.61-1.23l-21.82-21.73c-1.3495-1.3501-2.1077-3.181-2.1077-5.09s0.7582-3.7398 2.1077-5.09l3.35-3.34 17.92-17.93c0.8409-0.8206 1.9043-1.3762 3.0581-1.5979 1.1539-0.2217 2.3474-0.0998 3.4326 0.3507s2.0142 1.2096 2.6718 2.1833 1.0149 2.119 1.0275 3.2939c0.0109 1.0892-0.2836 2.1596-0.85 3.09l-16.72 17c-0.5557 0.5617-0.8674 1.3199-0.8674 2.11s0.3117 1.5484 0.8674 2.11l15.76 15.69z" fill="#ADADAD"/><path d="m92.46 60.914c0.8167 0.8408 1.3693 1.9024 1.5894 3.0536 0.2202 1.1513 0.0983 2.3419-0.3506 3.4246-0.4488 1.0828-1.205 2.0104-2.1751 2.6683-0.9701 0.6578-2.1117 1.0171-3.2837 1.0335-1.3063 1e-3 -2.576-0.4316-3.61-1.23-0.2171-0.1565-0.4211-0.3304-0.61-0.52l-21.21-21.21c-1.3495-1.3501-2.1077-3.181-2.1077-5.09s0.7582-3.7398 2.1077-5.09l3.35-3.34 17.92-17.93c0.8409-0.8206 1.9043-1.3762 3.0581-1.5979 1.1539-0.2217 2.3474-0.0998 3.4326 0.3507s2.0142 1.2096 2.6718 2.1833 1.0149 2.119 1.0275 3.2939c0.0109 1.0892-0.2836 2.1596-0.85 3.09-0.2466 0.4253-0.5493 0.8155-0.9 1.16l-15.82 15.77c-0.5557 0.5617-0.8674 1.3199-0.8674 2.11s0.3117 1.5484 0.8674 2.11l15.76 15.76z" fill="#ADADAD"/></svg>

<svg width="126" height="140" viewBox="0 0 126 140" fill="none" xmlns="http://www.w3.org/2000/svg">
<g clip-path="url(#clip0)">
<path d="M23.57 5.07C23.57 3.72535 24.1042 2.43578 25.055 1.48497C26.0058 0.534159 27.2954 -1.67638e-07 28.64 -1.67638e-07H78.12C84.663 -0.0720471 91.1754 0.903627 97.41 2.89L88.72 11.71C85.8556 11.1656 82.9456 10.8977 80.03 10.91H29.41C28.6427 10.9113 27.8827 10.7612 27.1736 10.4681C26.4644 10.1751 25.8201 9.745 25.2776 9.20244C24.735 8.65988 24.3049 8.01556 24.0119 7.30643C23.7188 6.59729 23.5687 5.83729 23.57 5.07V5.07Z" fill="#ADADAD"/>
<path d="M88.83 74.05L97.72 82.91C90.9138 85.1812 83.7745 86.2933 76.6 86.2H46.8C43.8216 86.2 40.9652 87.3832 38.8592 89.4892C36.7532 91.5952 35.57 94.4516 35.57 97.43V133.21C35.57 134.801 34.9379 136.327 33.8126 137.453C32.6874 138.578 31.1613 139.21 29.57 139.21C27.9787 139.21 26.4526 138.578 25.3274 137.453C24.2021 136.327 23.57 134.801 23.57 133.21V89.68C23.57 87.7869 23.9435 85.9124 24.6692 84.1639C25.3949 82.4154 26.4584 80.8273 27.7989 79.4906C29.1393 78.1538 30.7304 77.0947 32.4809 76.3739C34.2314 75.6531 36.1069 75.2847 38 75.29H77.69C81.439 75.3124 85.1777 74.8962 88.83 74.05V74.05Z" fill="#ADADAD"/>
<path d="M125.26 42.56C125.26 55.65 120.96 66.17 113.26 73.56C112.169 74.6005 110.714 75.1735 109.207 75.1566C107.699 75.1398 106.258 74.5346 105.19 73.47L104.96 73.25C103.886 72.2088 103.262 70.7883 103.223 69.2928C103.184 67.7974 103.732 66.3461 104.75 65.25C109.75 59.98 112.68 52.56 112.68 42.89C112.68 32.61 109.68 25.13 104.89 19.99C103.892 18.9049 103.352 17.4766 103.382 16.0029C103.412 14.5292 104.009 13.1239 105.05 12.08V12.08C106.1 11.0201 107.52 10.4083 109.012 10.3728C110.503 10.3374 111.951 10.8812 113.05 11.89C120.81 19.19 125.26 29.54 125.26 42.56Z" fill="#ADADAD"/>
<path d="M34.16 18.92V20.09H25V18.92C25 17.7027 25.4836 16.5352 26.3444 15.6744C27.2052 14.8136 28.3727 14.33 29.59 14.33C30.8073 14.33 31.9748 14.8136 32.8356 15.6744C33.6964 16.5352 34.18 17.7027 34.18 18.92H34.16Z" fill="#ADADAD"/>
<path d="M32.66 30.85H26.48C25.5963 30.85 24.88 31.5663 24.88 32.45V36C24.88 36.8837 25.5963 37.6 26.48 37.6H32.66C33.5437 37.6 34.26 36.8837 34.26 36V32.45C34.26 31.5663 33.5437 30.85 32.66 30.85Z" fill="#ADADAD"/>
<path d="M32.33 48.51H26.8C25.8059 48.51 25 49.3159 25 50.31V53.29C25 54.2841 25.8059 55.09 26.8 55.09H32.33C33.3241 55.09 34.13 54.2841 34.13 53.29V50.31C34.13 49.3159 33.3241 48.51 32.33 48.51Z" fill="#ADADAD"/>
<path d="M24.93 65.92H34.16H34.21V66.81C34.2441 68.0053 33.8318 69.1705 33.0535 70.0782C32.2751 70.986 31.1865 71.5713 30 71.72C29.3583 71.7768 28.7118 71.6997 28.1015 71.4934C27.4912 71.2872 26.9304 70.9564 26.4546 70.5221C25.9789 70.0877 25.5986 69.5592 25.3379 68.9701C25.0771 68.381 24.9416 67.7442 24.94 67.1L24.93 65.92Z" fill="#ADADAD"/>
<path d="M59.14 25.44C59.14 26.6255 58.6691 27.7625 57.8308 28.6008C56.9925 29.4391 55.8555 29.91 54.67 29.91H4.47C3.28448 29.91 2.14752 29.4391 1.30923 28.6008C0.470945 27.7625 0 26.6255 0 25.44C0 24.2545 0.470945 23.1175 1.30923 22.2792C2.14752 21.4409 3.28448 20.97 4.47 20.97H54.67C55.8555 20.97 56.9925 21.4409 57.8308 22.2792C58.6691 23.1175 59.14 24.2545 59.14 25.44V25.44Z" fill="#ADADAD"/>
<path d="M59.14 43C59.14 44.1855 58.6691 45.3225 57.8308 46.1608C56.9925 46.9991 55.8555 47.47 54.67 47.47H4.47C3.28448 47.47 2.14752 46.9991 1.30923 46.1608C0.470945 45.3225 0 44.1855 0 43C0 41.8145 0.470945 40.6775 1.30923 39.8392C2.14752 39.0009 3.28448 38.53 4.47 38.53H54.67C55.8555 38.53 56.9925 39.0009 57.8308 39.8392C58.6691 40.6775 59.14 41.8145 59.14 43V43Z" fill="#ADADAD"/>
<path d="M59.14 60.59C59.14 61.7755 58.6691 62.9125 57.8308 63.7508C56.9925 64.5891 55.8555 65.06 54.67 65.06H4.47C3.28448 65.06 2.14752 64.5891 1.30923 63.7508C0.470945 62.9125 0 61.7755 0 60.59C0 59.4045 0.470945 58.2675 1.30923 57.4292C2.14752 56.5909 3.28448 56.12 4.47 56.12H54.67C55.8555 56.12 56.9925 56.5909 57.8308 57.4292C58.6691 58.2675 59.14 59.4045 59.14 60.59V60.59Z" fill="#ADADAD"/>
<path d="M92.46 60.91C93.2767 61.7508 93.8292 62.8123 94.0494 63.9636C94.2696 65.1149 94.1477 66.3054 93.6988 67.3882C93.25 68.471 92.4938 69.3986 91.5237 70.0565C90.5536 70.7143 89.412 71.0736 88.24 71.09C86.9337 71.0909 85.664 70.6583 84.63 69.86L62.81 48.13C61.4605 46.7798 60.7023 44.949 60.7023 43.04C60.7023 41.131 61.4605 39.3002 62.81 37.95L66.16 34.61L84.08 16.68C84.9209 15.8594 85.9843 15.3038 87.1381 15.0821C88.292 14.8604 89.4855 14.9823 90.5707 15.4328C91.6559 15.8833 92.5849 16.6424 93.2425 17.6161C93.9001 18.5898 94.2574 19.7351 94.27 20.91C94.2809 21.9992 93.9864 23.0696 93.42 24L76.7 41C76.1443 41.5617 75.8326 42.3199 75.8326 43.11C75.8326 43.9001 76.1443 44.6583 76.7 45.22L92.46 60.91Z" fill="#ADADAD"/>
<path d="M92.46 60.91C93.2767 61.7508 93.8292 62.8123 94.0494 63.9636C94.2696 65.1149 94.1477 66.3054 93.6988 67.3882C93.25 68.471 92.4938 69.3986 91.5237 70.0565C90.5536 70.7143 89.412 71.0736 88.24 71.09C86.9337 71.0909 85.664 70.6583 84.63 69.86C84.4129 69.7035 84.2089 69.5296 84.02 69.34L62.81 48.13C61.4605 46.7798 60.7023 44.949 60.7023 43.04C60.7023 41.131 61.4605 39.3002 62.81 37.95L66.16 34.61L84.08 16.68C84.9209 15.8594 85.9843 15.3038 87.1381 15.0821C88.292 14.8604 89.4855 14.9823 90.5707 15.4328C91.6559 15.8833 92.5849 16.6424 93.2425 17.6161C93.9001 18.5898 94.2574 19.7351 94.27 20.91C94.2809 21.9992 93.9864 23.0696 93.42 24C93.1734 24.4253 92.8707 24.8155 92.52 25.16L76.7 40.93C76.1443 41.4917 75.8326 42.2499 75.8326 43.04C75.8326 43.8301 76.1443 44.5883 76.7 45.15L92.46 60.91Z" fill="#ADADAD"/>
</g>
<defs>
<clipPath id="clip0">
<rect width="125.26" height="139.21" fill="white"/>
</clipPath>
</defs>
</svg>
